icons/linear-ele-media-picture-image-photo-square.svg

<svg xmlns="http://www.w3.org/2000/svg" width="32px" height="32px" viewBox="0 0 32 32" version="1.1">
    <title>linear-ele-media-picture-image-photo-square</title>
    <g id="linear-ele-media-picture-image-photo-square" stroke-width="1" fill-rule="evenodd">
        <path d="M28,3 C28.5522847,3 29,3.44771525 29,4 L29,28 C29,28.5522847 28.5522847,29 28,29 L4,29 C3.44771525,29 3,28.5522847 3,28 L3,4 C3,3.44771525 3.44771525,3 4,3 L28,3 Z M27,16.414 L20.7071068,22.7071068 C20.3882362,23.0259773 19.8953962,23.0919775 19.5038611,22.8682431 L13.167,19.247 L5.414,27 L27,27 L27,16.414 Z M27,5 L5,5 L5,24.584 L12.2928932,17.2928932 C12.6117638,16.9740227 13.1046038,16.9080225 13.4961389,17.1317569 L19.832,20.752 L27,13.584 L27,5 Z M12,9 C13.1045695,9 14,9.8954305 14,11 C14,12.1045695 13.1045695,13 12,13 C10.8954305,13 10,12.1045695 10,11 C10,9.8954305 10.8954305,9 12,9 Z" id="&#24418;&#29366;" fill-rule="nonzero" />
    </g>
</svg>

<svg xmlns="http://www.w3.org/2000/svg" viewBox="0 0 32 32"><path fill="currentColor" d="M28 3a1 1 0 0 1 1 1v24a1 1 0 0 1-1 1H4a1 1 0 0 1-1-1V4a1 1 0 0 1 1-1zm-1 13.414-6.293 6.293a1 1 0 0 1-1.203.161l-6.337-3.621L5.414 27H27zM27 5H5v19.584l7.293-7.291a1 1 0 0 1 1.203-.161l6.336 3.62L27 13.584zM12 9a2 2 0 1 1 0 4 2 2 0 0 1 0-4"/></svg>
